icons/glyphs/glyph-media-repeat.svg

<?xml version="1.0" encoding="UTF-8" standalone="no"?><svg height="22" viewBox="0 0 5.8208332 5.8208335" width="22" xmlns="http://www.w3.org/2000/svg"><sodipodi:namedview/><metadata><rdf:RDF><cc:Work><dc:format>image/svg+xml</dc:format><dc:type/><dc:title/></cc:Work></rdf:RDF></metadata><path d="m2.8776538.92681688-1.2317594.74207352 1.2317594.7415567v-.3451984h1.3120647c.4478396 0 .7953002.349011.7953002.7968506v.097668c0 .2047047-.00577.2438429-.1012857.403593l.6800618.4077275c.1907066-.3189576.2160074-.4118904.2160074-.8113202v-.097668c0-.8738476-.7162361-1.5900839-1.5900837-1.5900839h-1.3120647zm-2.5353491 1.00355632c-.18253165.2771996-.3012736.575694-.30127359.9317261v.097668c0 .8738476.71571967 1.5900839 1.58956709 1.5900839h1.3125814v.3441653l1.3905095-.7420735-1.3905095-.7415569v.3462321h-1.3125814c-.4478396 0-.79478352-.349011-.79478352-.7968506v-.097668c0-.1824635.13108667-.4087646.22241542-.5474603z" fill="#fff"/></svg>

<?xml version="1.0" encoding="UTF-8" standalone="no"?>
<!-- Created with Inkscape (http://www.inkscape.org/) -->

<svg
   xmlns:dc="http://purl.org/dc/elements/1.1/"
   xmlns:cc="http://creativecommons.org/ns#"
   xmlns:rdf="http://www.w3.org/1999/02/22-rdf-syntax-ns#"
   xmlns:svg="http://www.w3.org/2000/svg"
   xmlns="http://www.w3.org/2000/svg"
   xmlns:sodipodi="http://sodipodi.sourceforge.net/DTD/sodipodi-0.dtd"
   xmlns:inkscape="http://www.inkscape.org/namespaces/inkscape"
   width="22"
   height="22"
   viewBox="0 0 5.8208332 5.8208335"
   version="1.1"
   id="svg8"
   inkscape:version="0.92+devel 15698 custom"
   sodipodi:docname="glyph-media-repeat.svg">
  <defs
     id="defs2" />
  <sodipodi:namedview
     id="base"
     pagecolor="#002466"
     bordercolor="#ffffff"
     borderopacity="0.29019608"
     inkscape:pageopacity="1"
     inkscape:pageshadow="2"
     inkscape:zoom="26.42008"
     inkscape:cx="13.503304"
     inkscape:cy="9.2372508"
     inkscape:document-units="px"
     inkscape:current-layer="svg8"
     inkscape:document-rotation="0"
     showgrid="false"
     units="px"
     inkscape:showpageshadow="false"
     borderlayer="true"
     inkscape:window-width="1920"
     inkscape:window-height="1054"
     inkscape:window-x="0"
     inkscape:window-y="0"
     inkscape:window-maximized="1"
     inkscape:measure-start="32.5157,14.358"
     inkscape:measure-end="32.5157,11.3541"
     inkscape:snap-nodes="true"
     inkscape:snap-bbox="true"
     inkscape:snap-bbox-midpoints="false"
     inkscape:bbox-paths="true"
     inkscape:bbox-nodes="true"
     inkscape:object-paths="true"
     inkscape:snap-smooth-nodes="true"
     inkscape:snap-intersection-paths="true"
     inkscape:snap-bbox-edge-midpoints="true"
     inkscape:snap-midpoints="true" />
  <metadata
     id="metadata5">
    <rdf:RDF>
      <cc:Work
         rdf:about="">
        <dc:format>image/svg+xml</dc:format>
        <dc:type
           rdf:resource="http://purl.org/dc/dcmitype/StillImage" />
        <dc:title></dc:title>
      </cc:Work>
    </rdf:RDF>
  </metadata>
  <path
     style="color:#000000;font-style:normal;font-variant:normal;font-weight:normal;font-stretch:normal;font-size:medium;line-height:normal;font-family:sans-serif;font-variant-ligatures:normal;font-variant-position:normal;font-variant-caps:normal;font-variant-numeric:normal;font-variant-alternates:normal;font-variant-east-asian:normal;font-feature-settings:normal;text-indent:0;text-align:start;text-decoration:none;text-decoration-line:none;text-decoration-style:solid;text-decoration-color:#000000;letter-spacing:normal;word-spacing:normal;text-transform:none;writing-mode:lr-tb;direction:ltr;text-orientation:mixed;dominant-baseline:auto;baseline-shift:baseline;text-anchor:start;white-space:normal;shape-padding:0;clip-rule:nonzero;display:inline;overflow:visible;visibility:visible;opacity:1;isolation:auto;mix-blend-mode:normal;color-interpolation:sRGB;color-interpolation-filters:linearRGB;solid-color:#000000;solid-opacity:1;vector-effect:none;fill:#ffffff;fill-opacity:1;fill-rule:nonzero;stroke:none;stroke-width:0.79374999;stroke-linecap:butt;stroke-linejoin:round;stroke-miterlimit:4;stroke-dasharray:none;stroke-dashoffset:0;stroke-opacity:1;color-rendering:auto;image-rendering:auto;shape-rendering:auto;text-rendering:auto;enable-background:accumulate"
     d="M 2.8776538,0.92681688 1.6458944,1.6688904 2.8776538,2.4104471 V 2.0652487 h 1.3120647 c 0.4478396,0 0.7953002,0.349011 0.7953002,0.7968506 v 0.097668 c 0,0.2047047 -0.00577,0.2438429 -0.1012857,0.403593 L 5.5637948,3.7710878 C 5.7545014,3.4521302 5.7798022,3.3591974 5.7798022,2.9597676 v -0.097668 c 0,-0.8738476 -0.7162361,-1.5900839 -1.5900837,-1.5900839 H 2.8776538 Z M 0.3423047,1.9303732 C 0.15977305,2.2075728 0.0410311,2.5060672 0.04103111,2.8620993 v 0.097668 c 0,0.8738476 0.71571967,1.5900839 1.58956709,1.5900839 H 2.9431796 V 4.8940165 L 4.3336891,4.151943 2.9431796,3.4103861 V 3.7566182 H 1.6305982 c -0.4478396,0 -0.79478352,-0.349011 -0.79478352,-0.7968506 v -0.097668 c 0,-0.1824635 0.13108667,-0.4087646 0.22241542,-0.5474603 z"
     id="path4301"
     inkscape:connector-curvature="0"
     sodipodi:nodetypes="ccccsssccssscccssscccccssscc"
     inkscape:label="#glyph" />
</svg>
